src/images/youtube.svg

<svg width="49" height="48" viewBox="0 0 49 48" fill="none" xmlns="http://www.w3.org/2000/svg">
<path fill-rule="evenodd" clip-rule="evenodd" d="M32.3139 16.4478C33.1744 16.6943 33.8522 17.4203 34.0822 18.3423C34.5 20.0133 34.5 23.5 34.5 23.5C34.5 23.5 34.5 26.9867 34.0822 28.6576C33.8522 29.5796 33.1744 30.3057 32.3139 30.5522C30.7542 31 24.5 31 24.5 31C24.5 31 18.2458 31 16.6861 30.5522C15.8256 30.3057 15.1478 29.5796 14.9178 28.6576C14.5 26.9867 14.5 23.5 14.5 23.5C14.5 23.5 14.5 20.0133 14.9178 18.3423C15.1478 17.4203 15.8256 16.6943 16.6861 16.4478C18.2458 16 24.5 16 24.5 16C24.5 16 30.7542 16 32.3139 16.4478ZM27.6961 23.5L22.5 20.2857V26.7143L27.6961 23.5Z" fill="white"/>
</svg>

<svg width="49" height="48" fill="none" xmlns="http://www.w3.org/2000/svg"><path fill-rule="evenodd" clip-rule="evenodd" d="M32.314 16.448c.86.246 1.538.972 1.768 1.894.418 1.671.418 5.158.418 5.158s0 3.487-.418 5.158c-.23.922-.908 1.648-1.768 1.894C30.754 31 24.5 31 24.5 31s-6.254 0-7.814-.448c-.86-.246-1.538-.972-1.768-1.894C14.5 26.987 14.5 23.5 14.5 23.5s0-3.487.418-5.158c.23-.922.908-1.648 1.768-1.894C18.246 16 24.5 16 24.5 16s6.254 0 7.814.448zM27.696 23.5L22.5 20.286v6.428l5.196-3.214z" fill="#fff"/></svg>
